docs/assets/images/shield.svg

<svg xmlns="http://www.w3.org/2000/svg" width="69" height="68" fill="none" viewBox="0 0 69 68"><path fill="#DEB606" d="M55.6745 15.1571L52.6469 14.2475L49.9225 11.3715L41.2903 14.3991L34.6288 8.19238L27.9673 14.2475L19.4868 11.0684C19.4868 11.0684 17.5203 13.9443 16.3076 14.2475C15.0949 14.5507 13.1285 15.3086 13.1285 15.3086C13.1285 15.3086 8.73658 59.3705 33.8751 59.0674C59.0094 58.7642 56.8914 21.0606 55.6787 15.1571H55.6745Z"/><path fill="#F8D004" d="M18.4261 12.58C18.4261 12.58 15.2469 53.4628 34.0229 53.6144C48.8618 53.766 50.8325 28.0253 51.283 24.3914C51.7378 20.7574 51.283 13.6412 51.283 13.6412L49.9187 11.3715L41.2866 14.3991L34.6251 8.19238L27.9636 14.2475L19.483 11.0684L18.4219 12.5843L18.4261 12.58Z"/><path fill="#FFE789" d="M34.6292 45.3866C41.0408 45.3866 46.2384 39.286 46.2384 31.7605C46.2384 24.2349 41.0408 18.1343 34.6292 18.1343C28.2176 18.1343 23.02 24.2349 23.02 31.7605C23.02 39.286 28.2176 45.3866 34.6292 45.3866Z"/><path fill="#F8D004" d="M37.0498 27.6251L34.9318 23.688L33.7191 24.1891L31.2978 28.2272L26.6533 28.9347L26.8554 30.2484L29.5798 33.0739L29.4788 37.8195L30.2872 38.8301L34.6286 37.112L38.3636 38.729L39.6731 38.0216L39.37 33.1749L42.3007 29.7431L41.8964 28.6315L37.0498 27.6251Z"/><path fill="#FFE789" d="M44.6889 13.022C44.3983 14.3274 45.0847 15.6833 46.0574 16.6012C47.0301 17.5192 48.2554 18.1045 49.4092 18.7782C50.5629 19.4519 51.7041 20.273 52.3062 21.4647C52.9842 22.8037 52.8831 24.3912 53.2284 25.8524C53.5737 27.3135 54.7527 28.8462 56.2391 28.6273L55.6749 15.1527C55.6749 15.1527 52.4957 14.3948 51.7883 13.4852C51.0809 12.5757 49.9187 11.3672 49.9187 11.3672L44.6846 13.0178L44.6889 13.022Z"/><path fill="#FFE789" d="M13.9333 35.2847C13.849 33.0319 18.4683 35.651 19.7273 37.5206C20.9864 39.3902 21.3906 41.6851 22.0559 43.8368C23.016 46.9444 24.7045 50.0015 27.5005 51.6605C28.9237 52.5069 30.6586 53.0248 31.5723 54.4018C32.5156 55.825 32.2713 57.6988 31.9934 59.3874C31.9934 59.3874 14.7417 56.3682 13.9375 35.2847H13.9333Z"/><path fill="#FFECAC" d="M23.6009 26.16C22.805 28.059 27.6769 25.9831 29.3065 24.7241C30.216 24.0209 31.0498 23.225 31.7909 22.3492C32.9657 20.9638 33.9384 19.3637 35.4164 18.3068C35.4164 18.3068 27.5127 16.8246 23.6009 26.16Z"/><path stroke="#002140" stroke-linecap="round" stroke-linejoin="round" d="M13.1245 15.1064C13.1245 15.1064 8.47998 59.1178 34.7259 59.1178"/><path stroke="#002140" stroke-linecap="round" stroke-linejoin="round" d="M56.016 15.1064C56.016 15.1064 60.6605 59.1178 34.4146 59.1178"/><path stroke="#002140" stroke-linecap="round" stroke-linejoin="round" d="M13.1245 15.1067C16.1142 15.1067 17.9206 13.0055 18.7207 11.7802C19.0365 11.2917 19.6681 11.1107 20.2029 11.338L27.2139 14.273C27.6602 14.4582 28.1739 14.3614 28.5234 14.0287L34.5533 8.19678"/><path stroke="#002140" stroke-linecap="round" stroke-linejoin="round" d="M56.1295 15.1067C53.1398 15.1067 51.3334 13.0055 50.5333 11.7802C50.2175 11.2917 49.5859 11.1107 49.0511 11.338L42.0401 14.273C41.5938 14.4582 41.08 14.3614 40.7306 14.0287L34.7007 8.19678"/><path stroke="#002140" stroke-linecap="round" stroke-linejoin="round" d="M18.2742 12.8833C18.2742 12.8833 15.2803 53.8966 34.2668 53.8966C53.2533 53.8966 51.4343 13.3339 51.4343 13.3339"/><path stroke="#002140" stroke-linecap="round" stroke-linejoin="round" d="M34.2418 45.2852C40.872 45.2852 46.2468 39.1676 46.2468 31.6211C46.2468 24.0746 40.872 17.957 34.2418 17.957C27.6116 17.957 22.2368 24.0746 22.2368 31.6211C22.2368 39.1676 27.6116 45.2852 34.2418 45.2852Z"/><path stroke="#002140" stroke-linecap="round" stroke-linejoin="round" d="M35.3575 24.0586L37.0629 27.5114C37.206 27.802 37.484 28.0041 37.804 28.0504L41.6148 28.602C42.419 28.7199 42.7433 29.7095 42.1579 30.2779L39.3999 32.9644C39.1683 33.1918 39.063 33.516 39.1177 33.8318L39.7704 37.6258C39.9094 38.43 39.0672 39.0406 38.3472 38.6616L34.9406 36.872C34.6543 36.7205 34.3132 36.7205 34.0269 36.872L30.6203 38.6616C29.9003 39.0406 29.0581 38.43 29.1971 37.6258L29.8498 33.8318C29.9045 33.5118 29.7992 33.1876 29.5676 32.9644L26.8096 30.2779C26.2285 29.7095 26.5485 28.7199 27.3527 28.602L31.1635 28.0504C31.4836 28.0041 31.7615 27.802 31.9046 27.5114L33.61 24.0586C33.9721 23.3301 35.0122 23.3301 35.3701 24.0586H35.3575Z"/></svg>

<svg xmlns="http://www.w3.org/2000/svg" width="69" height="68" fill="none" viewBox="0 0 69 68"><path fill="#deb606" d="m55.675 15.157-3.028-.91-2.724-2.876L41.29 14.4l-6.66-6.208-6.662 6.056-8.48-3.18s-1.967 2.876-3.18 3.18c-1.212.303-3.178 1.06-3.178 1.06s-4.392 44.063 20.746 43.76c25.134-.304 23.016-38.007 21.804-43.91z"/><path fill="#f8d004" d="M18.426 12.58s-3.18 40.883 15.597 41.034c14.839.152 16.81-25.589 17.26-29.223.455-3.634 0-10.75 0-10.75l-1.364-2.27-8.632 3.028-6.662-6.207-6.661 6.056-8.481-3.18-1.061 1.516z"/><path fill="#ffe789" d="M34.63 45.387c6.41 0 11.608-6.101 11.608-13.626 0-7.526-5.197-13.627-11.609-13.627-6.411 0-11.609 6.1-11.609 13.627 0 7.525 5.198 13.626 11.61 13.626"/><path fill="#f8d004" d="m37.05 27.625-2.118-3.937-1.213.501-2.421 4.038-4.645.708.202 1.313 2.725 2.826-.101 4.746.808 1.01 4.342-1.718 3.735 1.617 1.31-.707-.304-4.847 2.93-3.432-.404-1.111z"/><path fill="#ffe789" d="M44.689 13.022c-.29 1.305.396 2.661 1.368 3.58.973.917 2.198 1.503 3.352 2.176s2.295 1.495 2.897 2.687c.678 1.339.577 2.926.922 4.387.346 1.462 1.525 2.994 3.011 2.775l-.564-13.474s-3.18-.758-3.887-1.668-1.87-2.118-1.87-2.118l-5.233 1.65zM13.933 35.285c-.084-2.253 4.535.366 5.794 2.236 1.26 1.87 1.664 4.164 2.329 6.316.96 3.107 2.648 6.164 5.444 7.823 1.424.847 3.159 1.365 4.072 2.742.944 1.423.7 3.297.421 4.985 0 0-17.251-3.019-18.055-24.102z"/><path fill="#ffecac" d="M23.6 26.16c-.795 1.899 4.077-.177 5.706-1.436a16.3 16.3 0 0 0 2.485-2.375c1.175-1.385 2.147-2.985 3.625-4.042 0 0-7.903-1.482-11.815 7.853"/><path stroke="#002140" stroke-linecap="round" stroke-linejoin="round" d="M13.125 15.106s-4.645 44.012 21.6 44.012"/><path stroke="#002140" stroke-linecap="round" stroke-linejoin="round" d="M56.016 15.106s4.645 44.012-21.601 44.012m-21.29-44.011c2.99 0 4.796-2.101 5.596-3.327.316-.488.947-.67 1.482-.442l7.01 2.935c.447.185.96.088 1.31-.244l6.03-5.832"/><path stroke="#002140" stroke-linecap="round" stroke-linejoin="round" d="M56.13 15.107c-2.99 0-4.797-2.101-5.597-3.327a1.206 1.206 0 0 0-1.482-.442l-7.01 2.935a1.22 1.22 0 0 1-1.31-.244L34.7 8.197"/><path stroke="#002140" stroke-linecap="round" stroke-linejoin="round" d="M18.274 12.883S15.28 53.897 34.267 53.897c18.986 0 17.167-40.563 17.167-40.563"/><path stroke="#002140" stroke-linecap="round" stroke-linejoin="round" d="M34.242 45.285c6.63 0 12.005-6.117 12.005-13.664s-5.375-13.664-12.005-13.664-12.005 6.118-12.005 13.664c0 7.547 5.375 13.664 12.005 13.664"/><path stroke="#002140" stroke-linecap="round" stroke-linejoin="round" d="m35.358 24.059 1.705 3.452a.99.99 0 0 0 .741.54l3.81.551a.982.982 0 0 1 .544 1.676L39.4 32.964a.98.98 0 0 0-.282.868l.652 3.794a.98.98 0 0 1-1.423 1.036l-3.406-1.79a.98.98 0 0 0-.914 0l-3.407 1.79a.98.98 0 0 1-1.423-1.036l.653-3.794a.97.97 0 0 0-.282-.868l-2.758-2.686a.983.983 0 0 1 .543-1.676l3.81-.552a.98.98 0 0 0 .742-.539l1.705-3.452c.362-.729 1.402-.729 1.76 0z"/></svg>
